X: 03802
T: Lancers "Oriental"
T: Figure II
B: Henry Ford's "Good Morning"
Z: 2011 John Chambers <jc:trillian.mit.edu>
N: Dancers: Wait first eight bars.
N: Records No.104-A and No.105-A
R: reel
M: 2/4
L: 1/16
K: D
([fd][ge]) |\
"D"[a2f2][a2d2]"A"[a2c2][a2A2] | "D"abag fagf | "A7"e2e2 egfe | "D"dc"A7"de "D"f2([fd][ge]) |
"D"[a2f2][a2d2]"A"[a2c2][a2A2] | "D"abag fagf | "A7"e2e2 egfe | "D"d2z2 [d2F2]z2 Hy ||
K: A
"A"k[e4E4] k[a3A3][eE] | [a2A2][e2E2] "E7"k[g4G4]- |\
[g2G2][d2D2] k[f4F4]- | "A"[f2F2][c2C2] k[e4E4] |\
k[e4E4] k[c'3c3][eE] | "A"[c'2c2][e2E2] "E7"k[b4B4]- |\
[b2B2][d2D2] k[g4G4]- | "A"[g2G2][c2C2] [f4F4] |
k[e4E4] k[a3A3][eE] | [a2A2][e2E2] "E7"k[g4G4]- |\
[g2G2][d2D2] k[f4F4]- | "A"[f2F2][c2C2] k[e4E4] |\
k[e4E4] k[c'3c3][eE] | [c'2c2][e2E2] "E7"k[b4B4]- |\
[b2B2][e2E2] [g2G2][b2B2] | "A"[a2A2]z2 [aecA]"D.C."y |]


%%sep 5 1 500

